packages/core/src/svgs/rdpx.svg

<svg width="24" height="24" viewBox="0 0 24 24" fill="none" xmlns="http://www.w3.org/2000/svg">
<g clip-path="url(#clip0_31_16958)">
<path d="M0 0H24V24H0V0Z" fill="#002EFF"/>
<path d="M6.76711 9.27436L9.67711 4.71436L5.33568 9.07293C4.97568 9.43721 5.14283 10.0586 5.63997 10.1829L7.9414 10.7658C7.47854 11.4944 7.03283 12.3515 7.00283 13.2344C6.98688 13.4806 7.02248 13.7275 7.10734 13.9592C7.1922 14.1909 7.32447 14.4024 7.49568 14.5801C8.04425 15.1286 8.73425 15.3429 9.31282 15.8058C10.77 16.9715 11.4214 19.1058 13.5343 19.2772C14.8414 19.3844 16.4357 18.4844 16.8985 17.2286C17.079 16.7005 17.0775 16.1272 16.8943 15.6001C16.59 14.5972 15.96 13.7229 15.6514 12.7201C15.3643 11.7686 15.5614 11.3572 15.6857 11.1944C15.9857 10.8001 16.8428 10.6886 17.2243 10.5601L18.0643 10.2772C18.2657 10.2086 18.5185 10.1529 18.6771 9.99436C19.0414 9.63007 18.78 9.26578 18.5143 8.98721C17.121 7.55907 15.7239 6.13478 14.3228 4.71436C14.8207 5.49444 15.3164 6.27587 15.81 7.05864L17.25 9.33007L16.86 9.46293C16.1228 9.7115 15.27 9.83578 14.7685 10.4915C14.3571 11.0315 14.1857 11.8629 14.5543 13.0629C14.8628 14.0658 15.4885 14.9358 15.7928 15.9386C15.9 16.3029 15.9085 16.5815 15.8185 16.8258C15.5314 17.6015 14.5071 18.0686 13.71 18.0001C11.97 17.8586 11.2243 15.8572 10.0328 14.9015C9.47568 14.4601 8.82854 14.2801 8.30997 13.7615C8.20711 13.6586 8.14711 13.5086 8.15568 13.2686C8.1814 12.3986 8.77711 11.5286 9.27425 10.8601C9.5614 10.4744 9.35997 9.93436 8.90997 9.81864L6.76711 9.27436ZM11.6228 14.0015C11.6228 14.0015 10.7314 14.0015 10.14 13.4572C9.54854 12.9086 10.14 11.8158 10.14 11.8158C10.14 11.8158 10.3114 11.9229 10.9671 12.6901C11.6228 13.4572 11.6228 14.0015 11.6228 14.0015Z" fill="#F0F3FA"/>
</g>
<defs>
<clipPath id="clip0_31_16958">
<rect width="24" height="24" fill="white"/>
</clipPath>
</defs>
</svg>

<svg xmlns="http://www.w3.org/2000/svg" width="24" height="24" fill="none" viewBox="0 0 24 24"><g clip-path="url(#a)"><path fill="#002EFF" d="M0 0h24v24H0z"/><path fill="#F0F3FA" d="m6.767 9.274 2.91-4.56-4.341 4.359a.663.663 0 0 0 .304 1.11l2.301.583c-.462.728-.908 1.585-.938 2.468a1.77 1.77 0 0 0 .493 1.346c.548.549 1.238.763 1.817 1.226 1.457 1.165 2.108 3.3 4.221 3.471 1.307.107 2.902-.793 3.364-2.048a2.5 2.5 0 0 0-.004-1.629c-.304-1.003-.934-1.877-1.243-2.88-.287-.951-.09-1.363.035-1.526.3-.394 1.157-.505 1.538-.634l.84-.283c.202-.068.454-.124.613-.283.364-.364.103-.728-.163-1.007q-2.09-2.142-4.191-4.273.746 1.17 1.487 2.345l1.44 2.271-.39.133c-.737.248-1.59.373-2.091 1.029-.412.54-.583 1.37-.215 2.57.309 1.004.934 1.874 1.239 2.877.107.364.116.642.026.887-.288.776-1.312 1.243-2.109 1.174-1.74-.141-2.486-2.143-3.677-3.098-.557-.442-1.204-.622-1.723-1.14-.103-.103-.163-.253-.154-.493.025-.87.621-1.74 1.118-2.409A.664.664 0 0 0 8.91 9.82zm4.856 4.728s-.892 0-1.483-.545c-.591-.548 0-1.641 0-1.641s.171.107.827.874.656 1.312.656 1.312"/></g><defs><clipPath id="a"><path fill="#fff" d="M0 0h24v24H0z"/></clipPath></defs></svg>
